packages/ui/assets/svg/upcoming_gnosis.svg

<svg class="icon-size" width="30" height="30" viewBox="0 0 30 30" fill="none" xmlns="http://www.w3.org/2000/svg">
<g id="gnosis">
<path id="Vector" d="M26.6554 7.5L25.5518 8.604C26.429 9.984 26.7049 11.715 26.1036 13.3695C25.1004 16.179 21.9919 17.6595 19.1578 16.656C18.756 16.506 18.3811 16.3305 18.0542 16.104L14.5183 19.641L11.4339 16.53C10.0048 17.4825 8.17391 17.7585 6.44348 17.157C3.53442 16.104 2.03056 12.918 3.08307 10.0335C3.23302 9.582 3.45945 9.18 3.70987 8.805L2.3813 7.476L2.13088 7.902C0.739608 10.1744 0.00227006 12.7868 7.44978e-05 15.4515C-0.0254172 23.4525 6.49446 30 14.4929 30H14.5183C22.5167 30 29.0126 23.5035 29.0368 15.501C29.0365 12.8393 28.3079 10.2285 26.93 7.9515L26.6554 7.5Z" fill="#00A6C4"></path>
<path id="Vector_2" d="M5.34136 10.4355C4.95046 10.9564 4.73942 11.5902 4.74005 12.2415C4.74005 13.872 6.06862 15.201 7.69859 15.201C8.37637 15.201 9.00317 14.9745 9.504 14.574L5.34136 10.4355Z" fill="#00A6C4"></path>
<path id="Vector_3" d="M19.8596 14.322C20.3365 14.6475 20.8883 14.823 21.5151 14.823C23.145 14.823 24.4736 13.494 24.4736 11.8635C24.4736 11.262 24.2982 10.6845 23.9728 10.2075L19.8596 14.322Z" fill="#00A6C4"></path>
<path id="Vector_4" d="M14.5679 17.433L2.58224 5.3925L3.05909 4.8915C6.01763 1.7565 10.0543 0 14.3924 0H14.4179C18.8055 0 23.0191 1.881 25.9522 5.142L26.4035 5.643L14.5679 17.433ZM4.53911 5.3925L14.5693 15.4515L24.4736 5.5935C21.815 2.9355 18.2042 1.404 14.4434 1.404H14.4179C10.6811 1.404 7.19625 2.8095 4.53911 5.3925Z" fill="#00A6C4"></path>
</g>
</svg>

<svg class="icon-size" width="30" height="30" viewBox="0 0 30 30" fill="none" xmlns="http://www.w3.org/2000/svg"><g fill="#00A6C4"><path d="m26.655 7.5-1.103 1.104c.877 1.38 1.153 3.111.552 4.766-1.004 2.809-4.112 4.29-6.946 3.286a4.997 4.997 0 0 1-1.104-.552l-3.536 3.537-3.084-3.111a5.634 5.634 0 0 1-4.99.627c-2.91-1.053-4.413-4.239-3.36-7.123.149-.452.375-.854.626-1.229L2.38 7.476l-.25.426A14.481 14.481 0 0 0 0 15.452C-.026 23.451 6.493 30 14.492 30h.025c7.999 0 14.495-6.497 14.519-14.499 0-2.662-.73-5.272-2.107-7.55l-.275-.451Z"/><path d="M5.341 10.435a3.004 3.004 0 0 0-.601 1.806c0 1.631 1.329 2.96 2.959 2.96.677 0 1.304-.226 1.805-.627l-4.163-4.139ZM19.86 14.322a2.875 2.875 0 0 0 1.655.501 2.964 2.964 0 0 0 2.959-2.96c0-.601-.176-1.178-.501-1.655l-4.113 4.114ZM14.568 17.433 2.582 5.393l.477-.502A15.471 15.471 0 0 1 14.392 0h.026c4.387 0 8.601 1.881 11.534 5.142l.451.501-11.835 11.79ZM4.539 5.393 14.57 15.45l9.905-9.858c-2.659-2.657-6.27-4.189-10.03-4.189h-.026c-3.737 0-7.222 1.405-9.879 3.989Z"/></g></svg>
